map-marker-off.svg

<svg fill="currentColor" viewBox="0 0 24 24"><path d="m16.37 16.1-4.62-4.63-.11-.11L3.27 3 2 4.27l3.18 3.18C5.06 7.95 5 8.46 5 9c0 5.25 7 13 7 13s1.67-1.85 3.37-4.35L18.73 21 20 19.72M12 6.5A2.5 2.5 0 0 1 14.5 9c0 .73-.33 1.39-.83 1.85l3.63 3.65c.98-1.88 1.7-3.82 1.7-5.5a7 7 0 0 0-7-7c-2 0-3.76.82-5.04 2.14l3.19 3.19c.46-.51 1.11-.83 1.85-.83"/></svg>

<svg  viewBox="0 0 24 24" fill="currentColor"><path  d="M16.37,16.1L11.75,11.47L11.64,11.36L3.27,3L2,4.27L5.18,7.45C5.06,7.95 5,8.46 5,9C5,14.25 12,22 12,22C12,22 13.67,20.15 15.37,17.65L18.73,21L20,19.72M12,6.5A2.5,2.5 0 0,1 14.5,9C14.5,9.73 14.17,10.39 13.67,10.85L17.3,14.5C18.28,12.62 19,10.68 19,9A7,7 0 0,0 12,2C10,2 8.24,2.82 6.96,4.14L10.15,7.33C10.61,6.82 11.26,6.5 12,6.5Z"/></svg>
